Papirus/48x48/apps/josm.svg

<svg width="48" height="48" version="1.1" xmlns="http://www.w3.org/2000/svg">
 <path d="m6.0290303 7.7314672v31.054366s-0.2860861 1.677172 0.9379193 2.02993l11.03305 3.184237 12-3.499999 10.29683 3.012334c1.821105 0.634802 1.692106-1.266864 1.692106-1.266864v-31.301483c0.168344-1.6267354-1.640007-1.9620907-1.640007-1.9620907l-10.348929-2.9818958-12 3.4999995-10.405318-3.0487791s-1.5656517-0.434488-1.5656517 1.2802453z" style="opacity:.2"/>
 <path d="m 6.0292969,16.458984 -2.666e-4,21.326848 c 0,0 -0.2860861,1.677172 0.9379193,2.02993 L 7.453125,39.957028 24.617188,41.070312 30,39.5 31.976562,40.078125 41.988936,41.24547 V 39.787691 9.9439868 C 42.15728,8.3172516 40.348929,7.9818963 40.348929,7.9818963 L 30,5.0000005 28.685547,5.3828125 26,8 24.242188,6.6796875 18,8.5 15.431641,7.7480469 Z" style="fill:#ffc107"/>
 <path d="m28.685547 5.3828125-4.443359 1.296875c-1.247027 1.2817923-1.957032 2.553476-1.957032 4.7968745 0 2.80682 1.131343 3.400137 1.5 4.75 0.700114 2.563705 0.969641 4.370811 1.806641 6.478516 1.151786 2.901387 0.181246 7.478736 1.408203 10.363281 0.699943 1.64566 1.071429 1.943005 3 2.806641 0.428571 0.431818 1.070871 1.294745 1.285156 1.726562 0.473362 0.953861 0.348402 1.760451 0.691406 2.476563l8.320313 2.433594c1.821105 0.634802 1.691406-1.265625 1.691406-1.265625v-0.484375c-0.886384-8.128993-6.431569-9.387339-8.742187-11.332031-2.602029-2.189924-0.939652-4.285979-1.960938-7.373047-0.242785-0.733875-0.856585-3.238104-1.285156-3.669922-1.928571-1.295455-2.999721-2.590909-3.642578-4.75-1.30748-4.3914169 2.678346-6.7305347 2.328125-8.2539065zm-14.398438 31.757812c-0.186357-0.014333-0.37614-0.006954-0.572265 0.029297-1.788986 0.330643-1.715402 2.375177-3.429688 1.943359-0.8748835-0.220287-2.0684327 0.103502-2.832031 0.84375l10.546875 3.042969 6.617188-1.929688c-1.331199-2.031177-5.617093-5.065761-6.617188-3.251953-1.3125 0.566762-2.408389-0.577405-3.712891-0.677734z" style="fill:#0c7bd4"/>
 <path d="m24.242188 6.6796875c-1.247027 1.2817923-1.957032 2.5534765-1.957032 4.7968745 0 0.198092 7e-3 0.383462 0.01758 0.560547 0.09037-1.968381 0.778383-3.1639819 1.939454-4.3574215zm1.878906 5.6640625c-0.06841 0.695921-0.01264 1.456753 0.236328 2.292969 0.642857 2.159091 1.714007 3.454545 3.642578 4.75 0.428571 0.431818 1.042371 2.936048 1.285156 3.669922 1.021286 3.087069-0.641091 5.183123 1.960938 7.373047 2.295611 1.932061 7.782237 3.189887 8.722656 11.177734 0.02636-0.203806 0.01953-0.361328 0.01953-0.361328v-0.484375c-0.886383-8.128993-6.431568-9.38734-8.742186-11.332031-2.602029-2.189924-0.939652-4.285979-1.960938-7.373047-0.242785-0.733875-0.856585-3.238104-1.285156-3.669922-1.928571-1.295455-2.999721-2.590909-3.642578-4.75-0.135288-0.454389-0.203718-0.881156-0.236328-1.292969zm-12.117188 24.792969c-0.09526 0.0046-0.191 0.01508-0.289062 0.0332-1.788986 0.330643-1.715402 2.375177-3.429688 1.943359-0.8748833-0.220287-2.0684327 0.103502-2.832031 0.84375l1.0957031 0.316407c0.5869155-0.225518 1.2174181-0.290813 1.7363279-0.160157 1.714286 0.431818 1.640702-1.612716 3.429688-1.943359 0.196125-0.0363 0.385908-0.04363 0.572265-0.0293 1.304502 0.100329 2.400391 1.244496 3.712891 0.677734 0.872663-1.582692 4.246364 0.526866 5.976562 2.439453l0.640626-0.1875c-1.331199-2.03117-5.617093-5.065755-6.617188-3.251947-1.3125 0.566762-2.408389-0.577405-3.712891-0.677734-0.09318-0.0072-0.187947-0.0085-0.283203-0.0039z" style="opacity:.2"/>
 <path d="m7.0996094 6.404104c-0.458687 0.023418-1.0703125 0.2564167-1.0703125 1.328125v9.726562c0.4112327-0.19099 0.9670309-0.447265 1.2558593-0.447265 0.9303 0 1.5003617 0.215167 2.4492188 0.0918 0.5856-0.0763 0.98645-0.634253 1.53125-0.771485 0.514714-0.129545 1.189751-0.08908 1.683594-0.33789 0.674143-0.339409 1.622164-1.356953 2.142578-3.546875 0.150557-0.63365-0.183594-1.326882-0.183594-1.97461 0-0.5235541 0.147908-1.2760191 0.523438-1.724609l-7.837891-2.296878s-0.2189284-0.060926-0.4941406-0.046875z" style="opacity:.2"/>
 <path d="m7.0996094 5.4042969c-0.458687 0.0234176-1.0703125 0.2564167-1.0703125 1.328125v9.7265621c0.4112327-0.19099 0.9670309-0.447265 1.2558593-0.447265 0.9303 0 1.5003617 0.215167 2.4492188 0.091797 0.5856-0.076303 0.98645-0.634253 1.53125-0.771485 0.514714-0.129545 1.189751-0.089077 1.683594-0.33789 0.674143-0.339409 1.622164-1.356953 2.142578-3.546875 0.150557-0.63365-0.183594-1.326882-0.183594-1.9746098 0-0.5235544 0.147908-1.2760194 0.523438-1.7246093l-7.837891-2.296875s-0.2189284-0.0609256-0.4941406-0.046875z" style="fill:#4caf50"/>
 <path d="M 23.785714,20.034272 23.357143,18.307 21,20.250182 l 0.428572,1.727272 z" style="opacity:.2"/>
 <path d="M 23.785714,19.03409 23.357143,17.306818 21,19.25 l 0.428572,1.727272 z" style="fill:#81c784"/>
 <path d="m 12,34.931363 6,-0.431817 2.785715,-1.727273 V 28.67 L 18,30.397272 12,31.045 Z" style="opacity:.2"/>
 <path d="m12 33.931817 6-0.431817 2.785715-1.727273v-4.102273l-2.785715 1.727272-6 0.647728z" style="fill:#4d7687"/>
 <path d="M 20.357143,25.216181 19.714286,22.020728 18,23.273001 15.428572,23.920728 14.357143,18.523 9.8571428,19.602546 11.571428,28.778681 18,27.159363 Z" style="opacity:.2"/>
 <path d="M 20.357143,24.215908 19.714286,21.020455 18,22.272728 15.428572,22.920455 14.357143,17.522727 9.8571428,18.602273 11.571428,27.778408 18,26.15909 Z" style="fill:#df5050"/>
 <path d="m36.857143 12.477v3.886364l3.642857 1.079544v-3.886362z" style="opacity:.2"/>
 <path d="m36.857143 11.477273v3.886364l3.642857 1.079544v-3.886362z" style="fill:#ff8a65"/>
 <path d="m18 11.182273 5.357143-1.727273v1.727273l-1.285715 0.431818v0.573584l-4.071428 1.369598-0.642857-0.21591v-2.374999z" style="opacity:.2"/>
 <path d="m18 10.181819 5.357143-1.7272731v1.7272731l-1.285715 0.431818v0.573584l-4.071428 1.369598-0.642857-0.21591v-2.3749995z" style="fill:#00bcd4"/>
 <path d="m34.071428 25.647805 3.642858 2.375 1.285714-1.727273-3.642857-2.374999z" style="opacity:.2"/>
 <path d="m38.785156 19.17-1.285156 1.728516 3.642578 2.375 0.845703-1.136719v-0.878907z" style="opacity:.2"/>
 <path d="m35.785714 23.272806 3.642857 2.374999 1.285714-1.727272-3.642856-2.375z" style="opacity:.2"/>
 <path d="m34.071428 24.647727 3.642858 2.375 1.285714-1.727273-3.642857-2.374999z" style="fill:#b89b00"/>
 <path d="m38.785156 18.169922-1.285156 1.728516 3.642578 2.375 0.845703-1.136719v-0.878907l-3.203125-2.08789z" style="fill:#b89b00"/>
 <path d="m35.785714 22.272728 3.642857 2.374999 1.285714-1.727272-3.642856-2.375z" style="fill:#b89b00"/>
 <path d="m9.1289062 19.335938-0.6425781 0.216796 1.4570313 8.419922-0.2011719 7.023438 0.7304685-0.111328 0.199219-6.955078-1.5429688-8.59375zm1.3437498 15.548828-0.015625 0.515625-0.7285154 0.042968 0.0136719-0.447265-0.0996094 0.015625-3.6132812 2.546875v0.226562s-0.075979 0.480163 0.0351562 0.980469l3.7929688-2.673828 0.4277341-0.130859 7.714844-0.517579 3.857422-2.375-0.214844-1.080078-3.642578 2.375-7.5 0.517578-0.027344 0.003907z" style="fill:#646464"/>
 <ellipse cx="10.093" cy="35.465" rx=".579" ry=".583" style="fill:#222222;stroke-linecap:round;stroke-linejoin:round;stroke-width:.34415337;stroke:#ffffff"/>
 <ellipse cx="21.857" cy="32.442" rx=".579" ry=".583" style="fill:#222222;stroke-linecap:round;stroke-linejoin:round;stroke-width:.34415337;stroke:#ffffff"/>
 <ellipse cx="8.786" cy="19.487" rx=".579" ry=".583" style="fill:#222222;stroke-linecap:round;stroke-linejoin:round;stroke-width:.34415337;stroke:#ffffff"/>
 <ellipse cx="10.286" cy="27.951" rx=".579" ry=".583" style="fill:#222222;stroke-linecap:round;stroke-linejoin:round;stroke-width:.34415337;stroke:#ffffff"/>
 <path d="m6.0290303 6.7314662v31.054366s-0.2860861 1.677172 0.9379193 2.02993l11.03305 3.184237v-34.499999l-10.405318-3.0487791s-1.5656517-0.434488-1.5656517 1.2802453z" style="fill:#ffffff;opacity:.3"/>
 <path d="m30 39.5 10.29683 3.012334c1.821105 0.634802 1.692106-1.266864 1.692106-1.266864v-31.301483c0.168344-1.6267352-1.640007-1.9620905-1.640007-1.9620905l-10.348929-2.9818958z" style="fill:#ffffff;opacity:.3"/>
 <path d="m30 5-12 3.5-10.40625-3.0488281s-1.5644531-0.4334833-1.5644531 1.28125v1c0-1.7147333 1.5644531-1.28125 1.5644531-1.28125l10.40625 3.0488281 12-3.5 10.349609 2.9824219s1.807016 0.3342021 1.638672 1.9609371v-0.9999996c0.168344-1.6267352-1.638672-1.9609375-1.638672-1.9609375zm-23.970703 32.785156s-0.037095 0.329171 0 0.710938z" style="fill:#ffffff;opacity:.2"/>
 <path d="m37.181641 3.0019531c-1.644601 0.050645-3.104898 1.5685395-3.664063 2.5566407l-11.083984 19.980468-0.31836 5.472657-0.115234 1.988281 1.582031-1.142578 4.351563-3.144531 0.140625-0.101563 11.322265-20.146484c1.275753-2.1373184 0.339885-4.6352771-1.054687-5.2402344-0.390215-0.1692729-0.780633-0.2343436-1.160156-0.2226563z" style="opacity:.2"/>
 <path d="m22.433594 24.539062-0.31836 5.472657 1.466797 0.845703 4.351563-3.144531-5.5-3.173829z" style="fill:#d9c8b0"/>
 <path d="M 22.115234,30.011719 22,32 23.582031,30.857422 Z" style="fill:#505050"/>
 <path d="m37.181641 2.0019531c-1.644601 0.050645-3.104898 1.5685395-3.664063 2.5566407l-11.083984 19.980468 5.5 3.173829 0.140625-0.101563 11.322265-20.146484c1.275753-2.1373184 0.339885-4.6352771-1.054687-5.2402344-0.390215-0.1692729-0.780633-0.2343436-1.160156-0.2226563z" style="fill:#a15f34"/>
 <path d="m37.181641 2.0019531c-1.644601 0.050645-3.104898 1.5685395-3.664063 2.5566407l-11.083984 19.980468-0.31836 5.472657-0.115234 1.988281 0.060547-0.042969 0.054687-0.945312 0.31836-5.472657 11.083984-19.980468c0.559165-0.9881012 2.019462-2.5059957 3.664063-2.5566407 0.379523-0.0116873 0.769941 0.0533834 1.160156 0.2226563 0.82537 0.3580406 1.484379 1.3806601 1.625 2.5976562 0.206119-1.6296232-0.580737-3.1446611-1.625-3.5976562-0.390215-0.1692729-0.780633-0.2343436-1.160156-0.2226563z" style="fill:#ffffff;opacity:.2"/>
</svg>

<svg xmlns="http://www.w3.org/2000/svg" width="48" height="48" version="1.1">
 <path style="opacity:0.2" d="M 6.0290303,7.7314672 V 38.785833 c 0,0 -0.2860861,1.677172 0.9379193,2.02993 L 18,44 30,40.500001 40.29683,43.512335 c 1.821105,0.634802 1.692106,-1.266864 1.692106,-1.266864 V 10.943988 C 42.15728,9.3172526 40.348929,8.9818973 40.348929,8.9818973 L 30,6.0000015 18,9.500001 7.594682,6.4512219 c 0,0 -1.5656517,-0.434488 -1.5656517,1.2802453 z"/>
 <path style="fill:#ffc107" d="M 6.0290303,6.7314662 V 37.785832 c 0,0 -0.2860861,1.677172 0.9379193,2.02993 L 18,42.999999 30,39.5 40.29683,42.512334 c 1.821105,0.634802 1.692106,-1.266864 1.692106,-1.266864 V 9.9439868 C 42.15728,8.3172516 40.348929,7.9818963 40.348929,7.9818963 L 30,5.0000005 18,8.5 7.594682,5.4512209 c 0,0 -1.5656517,-0.434488 -1.5656517,1.2802453 z"/>
 <path style="fill:#0c7bd4" d="M 28.685547 5.3828125 L 24.242188 6.6796875 C 22.995161 7.9614798 22.285156 9.2331635 22.285156 11.476562 C 22.285156 14.283382 23.416499 14.876699 23.785156 16.226562 C 24.48527 18.790267 24.754797 20.597373 25.591797 22.705078 C 26.743583 25.606465 25.773043 30.183814 27 33.068359 C 27.699943 34.714019 28.071429 35.011364 30 35.875 C 30.428571 36.306818 31.070871 37.169745 31.285156 37.601562 C 31.758518 38.555423 31.633558 39.362013 31.976562 40.078125 L 40.296875 42.511719 C 42.11798 43.146521 41.988281 41.246094 41.988281 41.246094 L 41.988281 40.761719 C 41.101897 32.632726 35.556712 31.37438 33.246094 29.429688 C 30.644065 27.239764 32.306442 25.143709 31.285156 22.056641 C 31.042371 21.322766 30.428571 18.818537 30 18.386719 C 28.071429 17.091264 27.000279 15.79581 26.357422 13.636719 C 25.049942 9.2453021 29.035768 6.9061843 28.685547 5.3828125 z M 14.287109 37.140625 C 14.100752 37.126292 13.910969 37.133671 13.714844 37.169922 C 11.925858 37.500565 11.999442 39.545099 10.285156 39.113281 C 9.4102725 38.892994 8.2167233 39.216783 7.453125 39.957031 L 18 43 L 24.617188 41.070312 C 23.285989 39.039135 19.000095 36.004551 18 37.818359 C 16.6875 38.385121 15.591611 37.240954 14.287109 37.140625 z"/>
 <path style="fill:#4caf50" d="M 7.0996094 5.4042969 C 6.6409224 5.4277145 6.0292969 5.6607136 6.0292969 6.7324219 L 6.0292969 16.458984 C 6.4405296 16.267994 6.9963278 16.011719 7.2851562 16.011719 C 8.2154562 16.011719 8.7855179 16.226886 9.734375 16.103516 C 10.319975 16.027213 10.720825 15.469263 11.265625 15.332031 C 11.780339 15.202486 12.455376 15.242954 12.949219 14.994141 C 13.623362 14.654732 14.571383 13.637188 15.091797 11.447266 C 15.242354 10.813616 14.908203 10.120384 14.908203 9.4726562 C 14.908203 8.9491018 15.056111 8.1966368 15.431641 7.7480469 L 7.59375 5.4511719 C 7.59375 5.4511719 7.3748216 5.3902463 7.0996094 5.4042969 z"/>
 <path style="fill:#81c784" d="M 23.785714,19.03409 23.357143,17.306818 21,19.25 l 0.428572,1.727272 z"/>
 <path style="fill:#4d7687" d="M 12,33.931817 18,33.5 20.785715,31.772727 V 27.670454 L 18,29.397726 12,30.045454 Z"/>
 <path style="fill:#df5050" d="M 20.357143,24.215908 19.714286,21.020455 18,22.272728 15.428572,22.920455 14.357143,17.522727 9.8571428,18.602273 11.571428,27.778408 18,26.15909 Z"/>
 <path style="fill:#ff8a65" d="m 36.857143,11.477273 v 3.886364 L 40.5,16.443181 v -3.886362 z"/>
 <path style="fill:#00bcd4" d="m 18,10.181819 5.357143,-1.7272731 v 1.7272731 l -1.285715,0.431818 v 0.573584 L 18,12.556819 17.357143,12.340909 V 9.9659095 Z"/>
 <path style="fill:#b89b00" d="m 34.071428,24.647727 3.642858,2.375 L 39,25.295454 35.357143,22.920455 Z"/>
 <path style="fill:#b89b00" d="M 38.785156 18.169922 L 37.5 19.898438 L 41.142578 22.273438 L 41.988281 21.136719 L 41.988281 20.257812 L 38.785156 18.169922 z"/>
 <path style="fill:#b89b00" d="m 35.785714,22.272728 3.642857,2.374999 1.285714,-1.727272 -3.642856,-2.375 z"/>
 <path style="fill:#646464" d="M 9.1289062 19.335938 L 8.4863281 19.552734 L 9.9433594 27.972656 L 9.7421875 34.996094 L 10.472656 34.884766 L 10.671875 27.929688 L 9.1289062 19.335938 z M 10.472656 34.884766 L 10.457031 35.400391 L 9.7285156 35.443359 L 9.7421875 34.996094 L 9.6425781 35.011719 L 6.0292969 37.558594 L 6.0292969 37.785156 C 6.0292969 37.785156 5.9533179 38.265319 6.0644531 38.765625 L 9.8574219 36.091797 L 10.285156 35.960938 L 18 35.443359 L 21.857422 33.068359 L 21.642578 31.988281 L 18 34.363281 L 10.5 34.880859 L 10.472656 34.884766 z"/>
 <ellipse style="fill:#222222;stroke:#ffffff;stroke-width:0.34415337;stroke-linecap:round;stroke-linejoin:round" cx="10.093" cy="35.465" rx=".579" ry=".583"/>
 <ellipse style="fill:#222222;stroke:#ffffff;stroke-width:0.34415337;stroke-linecap:round;stroke-linejoin:round" cx="21.857" cy="32.442" rx=".579" ry=".583"/>
 <ellipse style="fill:#222222;stroke:#ffffff;stroke-width:0.34415337;stroke-linecap:round;stroke-linejoin:round" cx="8.786" cy="19.487" rx=".579" ry=".583"/>
 <ellipse style="fill:#222222;stroke:#ffffff;stroke-width:0.34415337;stroke-linecap:round;stroke-linejoin:round" cx="10.286" cy="27.951" rx=".579" ry=".583"/>
 <path style="fill:#ffffff;opacity:0.3" d="M 6.0290303,6.7314662 V 37.785832 c 0,0 -0.2860861,1.677172 0.9379193,2.02993 L 18,42.999999 V 8.5 L 7.594682,5.4512209 c 0,0 -1.5656517,-0.434488 -1.5656517,1.2802453 z"/>
 <path style="fill:#ffffff;opacity:0.3" d="m 30,39.5 10.29683,3.012334 c 1.821105,0.634802 1.692106,-1.266864 1.692106,-1.266864 V 9.9439868 C 42.15728,8.3172516 40.348929,7.9818963 40.348929,7.9818963 L 30,5.0000005 Z"/>
 <path style="fill:#ffffff;opacity:0.2" d="M 30 5 L 18 8.5 L 7.59375 5.4511719 C 7.59375 5.4511719 6.0292969 5.0176886 6.0292969 6.7324219 L 6.0292969 7.7324219 C 6.0292969 6.0176886 7.59375 6.4511719 7.59375 6.4511719 L 18 9.5 L 30 6 L 40.349609 8.9824219 C 40.349609 8.9824219 42.156625 9.316624 41.988281 10.943359 L 41.988281 9.9433594 C 42.156625 8.3166242 40.349609 7.9824219 40.349609 7.9824219 L 30 5 z M 6.0292969 37.785156 C 6.0292969 37.785156 5.9922021 38.114327 6.0292969 38.496094 L 6.0292969 37.785156 z"/>
 <g>
  <path style="opacity:0.1" d="M 37.181641,3.0019531 C 35.53704,3.0525981 34.076743,4.5704926 33.517578,5.5585938 L 22.433594,25.539062 22.115234,31.011719 22,33 23.582031,31.857422 27.933594,28.712891 28.074219,28.611328 39.396484,8.4648438 C 40.672237,6.3275254 39.736369,3.8295667 38.341797,3.2246094 37.951582,3.0553365 37.561164,2.9902658 37.181641,3.0019531 Z"/>
  <path style="fill:#b1a390" d="M 22.433594 24.539062 L 22.115234 30.011719 L 23.582031 30.857422 L 27.933594 27.712891 L 22.433594 24.539062 z"/>
  <path style="fill:#505050" d="M 22.115234,30.011719 22,32 23.582031,30.857422 Z"/>
  <path style="fill:#a15f34" d="m 37.181641,2.0019531 c -1.644601,0.050645 -3.104898,1.5685395 -3.664063,2.5566407 l -11.083984,19.9804682 5.5,3.173829 0.140625,-0.101563 L 39.396484,7.4648438 C 40.672237,5.3275254 39.736369,2.8295667 38.341797,2.2246094 37.951582,2.0553365 37.561164,1.9902658 37.181641,2.0019531 Z"/>
 </g>
</svg>
